frontend/src/assets/images/fundo.svg

<svg width="175" height="250" viewBox="0 0 175 250" fill="none" xmlns="http://www.w3.org/2000/svg">
<rect width="175" height="250" rx="5" fill="#26282A"/>
<rect x="6" y="6" width="163" height="238" fill="#B2536C"/>
<circle cx="8" cy="9" r="7" fill="#26282A"/>
<circle cx="7" cy="241" r="7" fill="#26282A"/>
<circle cx="168" cy="241" r="7" fill="#26282A"/>
<circle cx="168" cy="9" r="7" fill="#26282A"/>
<circle cx="8.5" cy="9.5" r="1.5" fill="#B2536C"/>
<circle cx="166.5" cy="9.5" r="1.5" fill="#B2536C"/>
<circle cx="8.5" cy="240.5" r="1.5" fill="#B2536C"/>
<circle cx="166.5" cy="240.5" r="1.5" fill="#B2536C"/>
<line x1="8.5" y1="18" x2="8.5" y2="232" stroke="#26282A"/>
<line x1="166.5" y1="18" x2="166.5" y2="232" stroke="#26282A"/>
<path d="M16.5 240C16.5 244.722 12.8917 248.5 8.5 248.5C4.10826 248.5 0.5 244.722 0.5 240C0.5 235.278 4.10826 231.5 8.5 231.5C12.8917 231.5 16.5 235.278 16.5 240Z" stroke="#26282A"/>
<path d="M17.5 10C17.5 14.7217 13.8917 18.5 9.5 18.5C5.10826 18.5 1.5 14.7217 1.5 10C1.5 5.27827 5.10826 1.5 9.5 1.5C13.8917 1.5 17.5 5.27827 17.5 10Z" stroke="#26282A"/>
<path d="M174.5 10C174.5 14.7217 170.892 18.5 166.5 18.5C162.108 18.5 158.5 14.7217 158.5 10C158.5 5.27827 162.108 1.5 166.5 1.5C170.892 1.5 174.5 5.27827 174.5 10Z" stroke="#26282A"/>
<path d="M174.5 240C174.5 244.722 170.892 248.5 166.5 248.5C162.108 248.5 158.5 244.722 158.5 240C158.5 235.278 162.108 231.5 166.5 231.5C170.892 231.5 174.5 235.278 174.5 240Z" stroke="#26282A"/>
<rect x="6" y="16" width="2" height="3" fill="#B2536C"/>
<rect x="167" y="230" width="2" height="3" fill="#B2536C"/>
<rect x="167" y="17" width="2" height="3" fill="#B2536C"/>
<rect x="6" y="230" width="2" height="3" fill="#B2536C"/>
<line x1="16" y1="241.5" x2="159" y2="241.5" stroke="#26282A"/>
<line x1="17" y1="8.5" x2="159" y2="8.5" stroke="#26282A"/>
<rect x="16" y="6" width="3" height="2" fill="#B2536C"/>
<rect x="14" y="242" width="3" height="2" fill="#B2536C"/>
<rect x="158" y="242" width="3" height="2" fill="#B2536C"/>
<rect x="158" y="6" width="3" height="2" fill="#B2536C"/>
<circle cx="87" cy="125" r="15.5" stroke="#26282A"/>
<circle cx="87" cy="125" r="22.25" stroke="#26282A" stroke-width="1.5"/>
<circle cx="87" cy="125" r="30.75" stroke="#26282A" stroke-width="2.5"/>
<circle cx="87" cy="125" r="41.25" stroke="#26282A" stroke-width="3.5"/>
<rect x="79.5" y="117.5" width="15" height="15" rx="2.5" fill="#B2536C" stroke="#26282A"/>
<rect x="82.5" y="66.5" width="9" height="9" rx="1.5" fill="#B2536C" stroke="#26282A"/>
<circle cx="87" cy="71" r="1" fill="#26282A"/>
<rect x="28.5" y="119.5" width="9" height="9" rx="1.5" fill="#B2536C" stroke="#26282A"/>
<circle cx="33" cy="124" r="1" fill="#26282A"/>
<rect x="82.5" y="174.5" width="9" height="9" rx="1.5" fill="#B2536C" stroke="#26282A"/>
<circle cx="87" cy="179" r="1" fill="#26282A"/>
<rect x="136.5" y="119.5" width="9" height="9" rx="1.5" fill="#B2536C" stroke="#26282A"/>
<circle cx="141" cy="124" r="1" fill="#26282A"/>
<circle cx="83" cy="121" r="1" fill="#26282A"/>
<circle cx="91" cy="129" r="1" fill="#26282A"/>
<circle cx="91" cy="125" r="1" fill="#26282A"/>
<circle cx="91" cy="121" r="1" fill="#26282A"/>
<circle cx="83" cy="129" r="1" fill="#26282A"/>
<circle cx="83" cy="125" r="1" fill="#26282A"/>
</svg>

<svg width="175" height="250" fill="none" xmlns="http://www.w3.org/2000/svg"><rect width="175" height="250" rx="5" fill="#26282A"/><path fill="#94475B" d="M6 6h163v238H6z"/><circle cx="8" cy="9" r="7" fill="#26282A"/><circle cx="7" cy="241" r="7" fill="#26282A"/><circle cx="168" cy="241" r="7" fill="#26282A"/><circle cx="168" cy="9" r="7" fill="#26282A"/><circle cx="8.5" cy="9.5" r="1.5" fill="#94475B"/><circle cx="166.5" cy="9.5" r="1.5" fill="#94475B"/><circle cx="8.5" cy="240.5" r="1.5" fill="#94475B"/><circle cx="166.5" cy="240.5" r="1.5" fill="#94475B"/><path stroke="#26282A" d="M8.5 18v214M166.5 18v214M16.5 240c0 4.722-3.608 8.5-8 8.5-4.392 0-8-3.778-8-8.5 0-4.722 3.608-8.5 8-8.5 4.392 0 8 3.778 8 8.5zM17.5 10c0 4.722-3.608 8.5-8 8.5-4.392 0-8-3.778-8-8.5 0-4.722 3.608-8.5 8-8.5 4.392 0 8 3.778 8 8.5zM174.5 10c0 4.722-3.608 8.5-8 8.5-4.392 0-8-3.778-8-8.5 0-4.722 3.608-8.5 8-8.5 4.392 0 8 3.778 8 8.5zM174.5 240c0 4.722-3.608 8.5-8 8.5-4.392 0-8-3.778-8-8.5 0-4.722 3.608-8.5 8-8.5 4.392 0 8 3.778 8 8.5z"/><path fill="#94475B" d="M6 16h2v3H6zM167 230h2v3h-2zM167 17h2v3h-2zM6 230h2v3H6z"/><path stroke="#26282A" d="M16 241.5h143M17 8.5h142"/><path fill="#94475B" d="M16 6h3v2h-3zM14 242h3v2h-3zM158 242h3v2h-3zM158 6h3v2h-3z"/><circle cx="87" cy="125" r="15.5" stroke="#26282A"/><circle cx="87" cy="125" r="22" stroke="#26282A" stroke-width="2"/><circle cx="87" cy="125" r="30.5" stroke="#26282A" stroke-width="3"/><circle cx="87" cy="125" r="41" stroke="#26282A" stroke-width="4"/><rect x="79.5" y="117.5" width="15" height="15" rx="2.5" fill="#94475B" stroke="#26282A"/><circle cx="83" cy="121" r="1" fill="#26282A"/><circle cx="91" cy="129" r="1" fill="#26282A"/><circle cx="91" cy="121" r="1" fill="#26282A"/><circle cx="83" cy="129" r="1" fill="#26282A"/><path d="M87.866 62.5 87 61l-.866 1.5L80.072 73l-.866 1.5h15.588l-.866-1.5-6.062-10.5zM36.062 118.5v-1.732l-1.5.866-10.5 6.062-1.5.866 1.5.866 10.5 6.062 1.5.866V118.5zM139.562 117.634l-1.5-.866v15.588l1.5-.866 10.5-6.062 1.5-.866-1.5-.866-10.5-6.062zM86.134 187.5 87 189l.866-1.5 6.062-10.5.866-1.5H79.206l.866 1.5 6.062 10.5z" fill="#94475B" stroke="#26282A" stroke-width="2"/></svg>
